!!!COM:	Bach, Johann Sebastian
!!!CDT:	1685/02/21/-1750/07/28/
!!!OTL@@DE:	Christum wir sollen loben schon
!!!SCT:	BWV 121/6
!!!PC#:	56
!!!AGN:	chorale
**kern	**kern	**kern	**kern
*ICvox	*ICvox	*ICvox	*ICvox
*Ibass	*Itenor	*Ialto	*Isoprn
*I"Bass	*I"Tenor	*I"Alto	*I"Soprano
*clefF4	*clefGv2	*clefG2	*clefG2
*k[f#c#]	*k[f#c#]	*k[f#c#]	*k[f#c#]
*b:	*b:	*b:	*b:
*M4/4	*M4/4	*M4/4	*M4/4
*met(c)	*met(c)	*met(c)	*met(c)
*MM100	*MM100	*MM100	*MM100
4EE	8GL	4B	8eL
.	8AJ	.	8f#J
=1	=1	=1	=1
4E	4B	4e	4g
8EL	4B	4e	4g
8DJ	.	.	.
4C#	2A	4e	4a
4D#	.	[4f#	[4b
=2	=2	=2	=2
8EL	8GL	4f#]	4b]
8F#J	8AJ	.	.
4G	4B	4e	4e
4F#	4A	4d#	4a
4E	4B	4e	4g
=3	=3	=3	=3
2.BB;	2.B;	2.d#;	2.f#;
4FF#	4A	4d	4a
=4	=4	=4	=4
4EE	4e	4g	8bL
.	.	.	8cc#J
8DDL	[4A	8f#L	[4dd
8EEJ	.	8gJ	.
8FF#L	8AL]	4a	4dd]
8GGJ	8B	.	.
4AA	8c#	8eL	4cc#
.	8dJ	8f#J	.
=5	=5	=5	=5
4EE	8eL	4g	4b
.	8dJ	.	.
4FF#	4c#	8f#L	4a
.	.	8eJ	.
8GGL	4B	4d	8bL
8AA	.	.	8cc#J
8BB	4B	4g	4dd
8C#J	.	.	.
=6	=6	=6	=6
2.D;	2.A;	2.f#;	2.dd;
8DL	8dL	8f#L	4a
8C#J	8eJ	8eJ	.
=7	=7	=7	=7
4.BB	4f#	8dL	8bL
.	.	8eJ	8cc#J
.	2B	2f#	2dd
8C#	.	.	.
8DL	.	.	.
8EJ	.	.	.
4F#	4A	8f#L	4cc#
.	.	8eJ	.
=8	=8	=8	=8
4G	8BL	8dL	4b
.	8c#J	8eJ	.
4F#	4d	4f#	4a
4E	8GL	4g	8bL
.	8AJ	.	8cc#J
8BBL	[4B	8dL	[4dd
8C#J	.	8eJ	.
=9	=9	=9	=9
8DL	8BL]	2.f#	4dd]
8EJ	8c#J	.	.
8F#L	4d	.	8aL
8GJ	.	.	8gJ
8AL	8c#L	.	8f#L
8BJ	8d#J	.	8gJ
4c	4e	4e	4a
=10	=10	=10	=10
2.B;	2.d#;	2.f#;	2.b;
8GL	4B	8eL	8eL
8F#J	.	8d#J	8f#J
=11	=11	=11	=11
4E	4B	8eL	4g
.	.	8f#J	.
4E	8BL	4g	8gL
.	8cJ	.	8aJ
8DL	8dnXL	8f#L	8bL
8CnXJ	8eJ	8eJ	8ccJ
8BBL	4f#	8dL	[4dd
8AAJ	.	8cnXJ	.
=12	=12	=12	=12
8GGL	4g	8BL	4dd]
8AA	.	8cJ	.
8BB	4G	8dL	4b
8CJ	.	8eJ	.
4.D	8dL	4.f#	8aL
.	8eJ	.	8g
.	[4f#	.	8f#
8CnX	.	8e	8gJ
=13	=13	=13	=13
4BB	4f#]	4d#	4a
8CL	8eL	[4e	4g
8BBJ	8dJ	.	.
2AA#	4c#	4e]	[2f#
.	4F#	8dL	.
.	.	8c#J	.
=14	=14	=14	=14
8BBL	8BL	8dL	1f#_
8C#J	8F#J	8eJ	.
8DL	[4B	2f#	.
8EJ	.	.	.
4.F#	8BL]	.	.
.	8A#J	.	.
.	8BL	8g#L	.
8E	8c#J	8a#J	.
=15	=15	=15	=15
8DL	[1d	[1b	1f#_
8C#	.	.	.
8BB	.	.	.
8AA#J	.	.	.
8BBL	.	.	.
8D	.	.	.
8C#	.	.	.
8BBJ	.	.	.
=16	=16	=16	=16
2F#	4d]	4b]	1f#;]
.	8c#L	8a#L	.
.	8BJ	8g#J	.
2FF#;	2c#;	2a#;	.
==	==	==	==
*-	*-	*-	*-
!!!hum2abc: -Q ''
!!!title: @{PC#}. @{OTL@@DE}
!!!YOR1: 371 vierstimmige Choralges&auml;nge von Johann Sebastian Bach, 
!!!YOR2: 4th ed. by Alfred D&ouml;rffel (Leipzig: Breitkopf und H&auml;rtel, 
!!!YOR2: c.1875). 178 pp. Plate "V.A.10".  reprint: J.S. Bach, 371 Four-Part 
!!!YOR4: Chorales (New York: Associated Music Publishers, Inc., c.1940).
!!!SMS: B&H, 4th ed, Alfred D&ouml;rffel, c.1875, plate V.A.10
!!!EED:  Craig Stuart Sapp
!!!EEV:  2009/05/22
